X:583
T:Little Liza Jane
S:Friends
Z:Nigel Gatherer
L:1/8
M:4/4
K:A
ef | a2 f2 e3 e | fecB  A2 ef | a2 f2 e2 c2 | f6
ef | a2 e2 e3 e | fecB  A4    | cBAF  E2 F2 | A4 A2 :|
z2 | Bccc  c3 A | B2 A6       | Bccc  cB A2 | F6 
E2 | F A3  B3 A | B c3  B3  A | cBAF  E2 F2 | A4 A2 :|]
<end>
<start>
